src/main/resources/images/icons/JabRef-icon.svg

<?xml version="1.0" encoding="UTF-8" standalone="no"?>
<!-- Created with Inkscape (http://www.inkscape.org/) -->

<svg
   xmlns:dc="http://purl.org/dc/elements/1.1/"
   xmlns:cc="http://creativecommons.org/ns#"
   xmlns:rdf="http://www.w3.org/1999/02/22-rdf-syntax-ns#"
   xmlns:svg="http://www.w3.org/2000/svg"
   xmlns="http://www.w3.org/2000/svg"
   xmlns:xlink="http://www.w3.org/1999/xlink"
   xmlns:sodipodi="http://sodipodi.sourceforge.net/DTD/sodipodi-0.dtd"
   xmlns:inkscape="http://www.inkscape.org/namespaces/inkscape"
   width="730"
   height="730"
   id="svg2"
   sodipodi:version="0.32"
   inkscape:version="0.91 r13725"
   sodipodi:docname="JabRef-icon.svg"
   version="1.1">
  <defs
     id="defs4">
    <linearGradient
       id="linearGradient2915">
      <stop
         id="stop2917"
         offset="0"
         style="stop-color:white;stop-opacity:1;" />
      <stop
         id="stop2919"
         offset="1"
         style="stop-color:#dadce0;stop-opacity:1;" />
    </linearGradient>
    <linearGradient
       id="linearGradient2909">
      <stop
         id="stop2911"
         offset="0"
         style="stop-color:white;stop-opacity:1;" />
      <stop
         id="stop2913"
         offset="1"
         style="stop-color:#cfd1d7;stop-opacity:1;" />
    </linearGradient>
    <linearGradient
       id="linearGradient2897">
      <stop
         style="stop-color:#dadee7;stop-opacity:1;"
         offset="0"
         id="stop2899" />
      <stop
         style="stop-color:#1e68c6;stop-opacity:1;"
         offset="1"
         id="stop2901" />
    </linearGradient>
    <linearGradient
       id="linearGradient2889">
      <stop
         style="stop-color:#e0e4ee;stop-opacity:1;"
         offset="0"
         id="stop2891" />
      <stop
         style="stop-color:#e0e4ee;stop-opacity:0;"
         offset="1"
         id="stop2893" />
    </linearGradient>
    <linearGradient
       inkscape:collect="always"
       xlink:href="#linearGradient2915"
       id="linearGradient2971"
       gradientUnits="userSpaceOnUse"
       gradientTransform="matrix(1.115225,0,0,1,-1.889007,46.1244)"
       x1="329.18756"
       y1="289.87192"
       x2="598.66205"
       y2="548.62866" />
    <linearGradient
       inkscape:collect="always"
       xlink:href="#linearGradient2909"
       id="linearGradient2974"
       gradientUnits="userSpaceOnUse"
       gradientTransform="matrix(1.082601,0,0,1,-1.374219,40)"
       x1="145.45497"
       y1="332.74286"
       x2="326.12537"
       y2="576.18854" />
    <linearGradient
       inkscape:collect="always"
       xlink:href="#linearGradient2909"
       id="linearGradient2983"
       gradientUnits="userSpaceOnUse"
       gradientTransform="matrix(0.08119652,0,0,0.07966468,422.1323,954.272)"
       x1="145.45497"
       y1="332.74286"
       x2="326.12537"
       y2="576.18854" />
    <linearGradient
       inkscape:collect="always"
       xlink:href="#linearGradient2915"
       id="linearGradient2985"
       gradientUnits="userSpaceOnUse"
       gradientTransform="matrix(0.08119652,0,0,0.07966468,424.2434,954.7598)"
       x1="329.18756"
       y1="289.87192"
       x2="598.66205"
       y2="548.62866" />
  </defs>
  <sodipodi:namedview
     id="base"
     pagecolor="#ffffff"
     bordercolor="#666666"
     borderopacity="1.0"
     gridtolerance="50"
     guidetolerance="10"
     objecttolerance="10"
     inkscape:pageopacity="0.0"
     inkscape:pageshadow="2"
     inkscape:zoom="1"
     inkscape:cx="405.74281"
     inkscape:cy="402.54178"
     inkscape:document-units="px"
     inkscape:current-layer="layer1"
     showgrid="false"
     inkscape:guide-bbox="false"
     showguides="true"
     inkscape:window-width="1920"
     inkscape:window-height="1137"
     inkscape:window-x="1912"
     inkscape:window-y="-8"
     inkscape:window-maximized="1"
     fit-margin-top="0"
     fit-margin-left="0"
     fit-margin-right="0"
     fit-margin-bottom="0" />
  <metadata
     id="metadata7">
    <rdf:RDF>
      <cc:Work
         rdf:about="">
        <dc:format>image/svg+xml</dc:format>
        <dc:type
           rdf:resource="http://purl.org/dc/dcmitype/StillImage" />
        <dc:title></dc:title>
      </cc:Work>
    </rdf:RDF>
  </metadata>
  <g
     inkscape:label="Layer 1"
     inkscape:groupmode="layer"
     id="layer1"
     transform="translate(-10.717734,-89.63427)">
    <rect
       style="opacity:1;fill:#4f5f8f;fill-opacity:1"
       id="rect2905"
       width="730"
       height="730"
       x="10.717734"
       y="89.63427" />
    <path
       style="fill:url(#linearGradient2974);fill-opacity:1;fill-rule:evenodd;stroke:none;stroke-width:1px;stroke-linecap:butt;stroke-linejoin:miter;stroke-opacity:1"
       d="m 122.04224,150.95548 c 86.60805,0 164.92822,33.77994 164.92822,33.77994 0,0 85.51566,52.53575 40.55407,426.5079 -12.94897,72.43825 -76.70911,136.74465 -154.61514,136.74465 -77.906027,0 -122.66055,-45.93314 -122.66055,-99.52182 69.61816,45.93315 118.45073,33.08233 139.2363,24.49769 9.97002,-4.11771 62.14927,-36.79074 67.96058,-124.01951 6.6303,-99.52182 -9.94546,-251.10121 -135.40348,-397.98885 z"
       id="path1972"
       sodipodi:nodetypes="cccscssc"
       inkscape:connector-curvature="0" />
    <path
       style="fill:url(#linearGradient2971);fill-opacity:1;fill-rule:evenodd;stroke:none;stroke-width:1.05348015px;stroke-linecap:butt;stroke-linejoin:miter;stroke-opacity:1"
       d="M 322.49657,164.88378 C 533.15821,196.83799 712.94701,311.87314 516.81377,452.47165 462.33232,497.20754 627.59274,671.35798 692.97048,751.2435 544.0545,717.69157 402.40271,580.28849 400.58666,476.43731 c -1.81604,-75.09239 116.22711,-83.08094 116.22711,-129.41455 0,-46.3336 -172.52461,-84.67865 -194.3172,-182.13898 z"
       id="path1993"
       sodipodi:nodetypes="cccc"
       inkscape:connector-curvature="0" />
  </g>
</svg>

<?xml version="1.0" encoding="UTF-8" standalone="no"?>
<!-- Created with Inkscape (http://www.inkscape.org/) -->
<svg
   xmlns:dc="http://purl.org/dc/elements/1.1/"
   xmlns:cc="http://web.resource.org/cc/"
   xmlns:rdf="http://www.w3.org/1999/02/22-rdf-syntax-ns#"
   xmlns:svg="http://www.w3.org/2000/svg"
   xmlns="http://www.w3.org/2000/svg"
   xmlns:xlink="http://www.w3.org/1999/xlink"
   xmlns:sodipodi="http://sodipodi.sourceforge.net/DTD/sodipodi-0.dtd"
   xmlns:inkscape="http://www.inkscape.org/namespaces/inkscape"
   width="744.09448819"
   height="1052.3622047"
   id="svg2"
   sodipodi:version="0.32"
   inkscape:version="0.44"
   sodipodi:docbase="/home/alver/Documents"
   sodipodi:docname="jabrefIkon.svg">
  <defs
     id="defs4">
    <linearGradient
       id="linearGradient2915">
      <stop
         id="stop2917"
         offset="0"
         style="stop-color:white;stop-opacity:1;" />
      <stop
         id="stop2919"
         offset="1"
         style="stop-color:#dadce0;stop-opacity:1;" />
    </linearGradient>
    <linearGradient
       id="linearGradient2909">
      <stop
         id="stop2911"
         offset="0"
         style="stop-color:white;stop-opacity:1;" />
      <stop
         id="stop2913"
         offset="1"
         style="stop-color:#cfd1d7;stop-opacity:1;" />
    </linearGradient>
    <linearGradient
       id="linearGradient2897">
      <stop
         style="stop-color:#dadee7;stop-opacity:1;"
         offset="0"
         id="stop2899" />
      <stop
         style="stop-color:#1e68c6;stop-opacity:1;"
         offset="1"
         id="stop2901" />
    </linearGradient>
    <linearGradient
       id="linearGradient2889">
      <stop
         style="stop-color:#e0e4ee;stop-opacity:1;"
         offset="0"
         id="stop2891" />
      <stop
         style="stop-color:#e0e4ee;stop-opacity:0;"
         offset="1"
         id="stop2893" />
    </linearGradient>
    <linearGradient
       inkscape:collect="always"
       xlink:href="#linearGradient2915"
       id="linearGradient2971"
       gradientUnits="userSpaceOnUse"
       gradientTransform="matrix(1.115225,0,0,1,-1.889007,46.1244)"
       x1="329.18756"
       y1="289.87192"
       x2="598.66205"
       y2="548.62866" />
    <linearGradient
       inkscape:collect="always"
       xlink:href="#linearGradient2909"
       id="linearGradient2974"
       gradientUnits="userSpaceOnUse"
       gradientTransform="matrix(1.082601,0,0,1,-1.374219,40)"
       x1="145.45497"
       y1="332.74286"
       x2="326.12537"
       y2="576.18854" />
    <linearGradient
       inkscape:collect="always"
       xlink:href="#linearGradient2909"
       id="linearGradient2983"
       gradientUnits="userSpaceOnUse"
       gradientTransform="matrix(8.119652e-2,0,0,7.966468e-2,422.1323,954.272)"
       x1="145.45497"
       y1="332.74286"
       x2="326.12537"
       y2="576.18854" />
    <linearGradient
       inkscape:collect="always"
       xlink:href="#linearGradient2915"
       id="linearGradient2985"
       gradientUnits="userSpaceOnUse"
       gradientTransform="matrix(8.119652e-2,0,0,7.966468e-2,424.2434,954.7598)"
       x1="329.18756"
       y1="289.87192"
       x2="598.66205"
       y2="548.62866" />
    <linearGradient
       inkscape:collect="always"
       xlink:href="#linearGradient2909"
       id="linearGradient3878"
       gradientUnits="userSpaceOnUse"
       gradientTransform="matrix(3.824753e-2,0,0,3.538487e-2,403.2956,1005.814)"
       x1="145.45497"
       y1="332.74286"
       x2="326.12537"
       y2="576.18854" />
    <linearGradient
       inkscape:collect="always"
       xlink:href="#linearGradient2915"
       id="linearGradient3880"
       gradientUnits="userSpaceOnUse"
       gradientTransform="matrix(3.863231e-2,4.140938e-3,-3.672702e-3,3.351102e-2,404.9189,1005.265)"
       x1="329.18756"
       y1="289.87192"
       x2="598.66205"
       y2="548.62866" />
  </defs>
  <sodipodi:namedview
     id="base"
     pagecolor="#ffffff"
     bordercolor="#666666"
     borderopacity="1.0"
     gridtolerance="50"
     guidetolerance="10"
     objecttolerance="10"
     inkscape:pageopacity="0.0"
     inkscape:pageshadow="2"
     inkscape:zoom="21.286454"
     inkscape:cx="416.46054"
     inkscape:cy="31.511436"
     inkscape:document-units="px"
     inkscape:current-layer="layer1"
     showgrid="false"
     inkscape:guide-bbox="false"
     showguides="true"
     inkscape:window-width="1118"
     inkscape:window-height="944"
     inkscape:window-x="0"
     inkscape:window-y="0" />
  <metadata
     id="metadata7">
    <rdf:RDF>
      <cc:Work
         rdf:about="">
        <dc:format>image/svg+xml</dc:format>
        <dc:type
           rdf:resource="http://purl.org/dc/dcmitype/StillImage" />
      </cc:Work>
    </rdf:RDF>
  </metadata>
  <g
     inkscape:label="Layer 1"
     inkscape:groupmode="layer"
     id="layer1">
    <rect
       style="opacity:1;fill:#4f5f8f;fill-opacity:1"
       id="rect2905"
       width="716.55713"
       height="730.3371"
       x="10.717734"
       y="89.297173" />
    <path
       style="fill:url(#linearGradient2974);fill-opacity:1;fill-rule:evenodd;stroke:none;stroke-width:1px;stroke-linecap:butt;stroke-linejoin:miter;stroke-opacity:1"
       d="M 122.04224,150.95548 C 208.65029,150.95548 286.97046,184.73542 286.97046,184.73542 C 286.97046,184.73542 372.48612,237.27117 327.52453,611.24332 C 314.57556,683.68157 250.81542,747.98797 172.90939,747.98797 C 95.003363,747.98797 50.24884,702.05483 50.24884,648.46615 C 119.867,694.3993 168.69957,681.54848 189.48514,672.96384 C 199.45516,668.84613 251.63441,636.1731 257.44572,548.94433 C 264.07602,449.42251 247.50026,297.84312 122.04224,150.95548 z "
       id="path1972"
       sodipodi:nodetypes="cccscssc" />
    <path
       style="fill:url(#linearGradient2971);fill-opacity:1;fill-rule:evenodd;stroke:none;stroke-width:1.05348015px;stroke-linecap:butt;stroke-linejoin:miter;stroke-opacity:1"
       d="M 322.49657,164.88378 C 533.15821,196.83799 712.94701,311.87314 516.81377,452.47165 C 462.33232,497.20754 627.59274,671.35798 692.97048,751.2435 C 544.0545,717.69157 402.40271,580.28849 400.58666,476.43731 C 398.77062,401.34492 516.81377,393.35637 516.81377,347.02276 C 516.81377,300.68916 344.28916,262.34411 322.49657,164.88378 z "
       id="path1993"
       sodipodi:nodetypes="cccc" />
    <rect
       style="opacity:1;fill:#4f5f8f;fill-opacity:1"
       id="rect3872"
       width="24.96747"
       height="24.892717"
       x="403.74191"
       y="1008.134"
       inkscape:export-xdpi="173.03"
       inkscape:export-ydpi="173.03"
       inkscape:export-filename="/home/alver/div/smalltheme/jabrefIkon-48.png" />
    <path
       style="fill:url(#linearGradient3878);fill-opacity:1;fill-rule:evenodd;stroke:none;stroke-width:1px;stroke-linecap:butt;stroke-linejoin:miter;stroke-opacity:1"
       d="M 407.84626,1010.4236 C 410.90607,1010.4236 413.43489,1010.4972 413.43489,1010.4972 C 413.43489,1010.4972 416.50376,1012.7951 414.91528,1026.0281 C 414.45779,1028.5913 412.2052,1030.8669 409.45284,1030.8669 C 406.70046,1030.8669 405.11931,1029.2413 405.11931,1027.3453 C 407.95995,1028.6292 410.06622,1027.9794 410.80057,1027.6755 C 411.15281,1027.5298 412.46165,1026.9172 412.43944,1023.8236 C 412.38788,1016.6442 413.08837,1015.0847 407.84626,1010.4236 z "
       id="path3874"
       sodipodi:nodetypes="cccscssc"
       inkscape:export-filename="/home/alver/div/smalltheme/jabrefIkon-48.png"
       inkscape:export-xdpi="173.03"
       inkscape:export-ydpi="173.03" />
    <path
       style="fill:url(#linearGradient3880);fill-opacity:1;fill-rule:evenodd;stroke:none;stroke-width:1.05348015px;stroke-linecap:butt;stroke-linejoin:miter;stroke-opacity:1"
       d="M 415.71976,1010.449 C 423.13477,1010.8154 428.70544,1016.8245 421.39485,1020.8079 C 419.34326,1022.1048 424.42839,1028.5544 426.39975,1031.4741 C 421.3644,1029.7968 416.96212,1024.6664 417.28063,1021.1794 C 417.49352,1018.6562 421.61195,1018.8269 421.78212,1017.2742 C 421.95228,1015.7216 419.07637,1015.8865 415.71976,1010.449 z "
       id="path3876"
       sodipodi:nodetypes="ccccsc"
       inkscape:export-filename="/home/alver/div/smalltheme/jabrefIkon-48.png"
       inkscape:export-xdpi="173.03"
       inkscape:export-ydpi="173.03" />
  </g>
</svg>
